art/dp/systems_sel/mess.svg

<svg enable-background="new 0 0 1897.3 456.5" height="1192.1754" viewBox="0 0 3839.9999 1192.1754" width="3840" xmlns="http://www.w3.org/2000/svg"><g fill="#fff"><path d="m1052.5332 0-1052.5332 1120.2109h511.83203l14.05078-13.6113 253.31055-245.3203v330.8965l311.08394-324.67971v252.71681h2297.5801l279.8242-636.90235h-360.8437l27.8633-64.00977h378.7226l126.5762-291.24805h-724.0117-726.877-727.5273l-230.0117 510.86133v-616.027341l-379.0391 422.833981zm-16.1914 45.439453-.0078 447.326167 379.0508-422.833979v653.042969l259.8476-577.125h689.9512l-114.4102 255.01367-381.7851-.0039-43.6485 100.25195h208.3809l-113.3496 262.93945-173.9336-.00976-42.8867 95.72656h753.0625l42.8867-95.7207h-367.0117l270.4121-618.20313h694.5859l-110.8261 255.01367-394.3204-.0039-43.6445 100.25195h365.6953l-156.9941 358.66015h426.1015l42.8868-95.72265h-367.0235l270.418-618.20117h684.5195l-110.8222 255.01367h-378.7207l-43.6426 100.25781h360.7558l-263.9043 600.65432h-2267.6269v-279.70705l-311.0879 324.68165v-328.56837l-284.03906 275.08987-8.79297 8.5078h-462.597658zm-29.7852 75.708987-886.89058 938.67966h372.5996 1.93165 6.02148l332.44922-319.08005v313.48245l313.89063-321.88089v333.07809h2212.1016l237.3652-534.65036h-360.582l69.9492-160.66015h378.6972l84.5704-194.60352h-613.1114l-238.3867 552.19336h367.459l-75.5449 161.72852h-497.4512l156.9902-358.65821h-365.5879l69.9454-160.66015h394.3066l84.5664-194.60352h-623.1777l-238.3907 552.19336h361.8711l-75.5488 161.72852h-819.2519l72.7461-161.72852h173.625l84.5117-196.92969h-208.5606l69.9453-160.66015h382.0254l87.3106-194.60352h-618.1719l-273.3379 607.08203h-41.8398v-634.26367l-379.045 422.84375zm1299.4922 196.77539-203.2226 464.5625h366.7578l-26.6465 59.47851h-713.3418l26.6465-59.47851h174.1113l128.9824-299.17578h-208.2773l27.8691-64.00977h381.6407zm296.2344 101.37695h386.3066l-158.875 363.18555h366.75l-26.6445 59.48437h-386.6465l156.9883-358.66015h-365.748z"/><path d="m821.10064 763.919-320.66841 309.8022-2.64464 2.5523h-406.165028l924.761338-981.8136v449.21288l379.98-422.84576v648.88538h21.3787l274.0099-607.07536h645.1982l-95.6766 212.72672h-382.8912l-62.199 142.53308h209.0158l-95.3573 220.64746h-174.1446l-61.9773 138.0118h801.3529l61.9774-138.0039h-368.2402l252.5414-575.91516h650.1127l-92.673 212.72672h-395.2698l-62.207 142.53308h366.5114l-157.3689 358.65926h473.2759l61.9773-138.0039h-368.2322l252.5388-575.91516h640.025l-92.6809 212.72672h-379.6237l-62.2122 142.53308h361.5177l-245.9351 558.37666h-2238.1544v-311.1905l-311.85296 324.6802zm-326.98439 303.2936v-9.0662z" stroke-width="2.63935"/></g></svg>

<?xml version="1.0" encoding="UTF-8" standalone="no"?>
<svg
   enable-background="new 0 0 1897.3 456.5"
   height="1192.1754"
   viewBox="0 0 3839.9999 1192.1754"
   width="3840"
   version="1.1"
   id="svg7"
   sodipodi:docname="mess.svg"
   inkscape:version="1.3.2 (091e20e, 2023-11-25)"
   xmlns:inkscape="http://www.inkscape.org/namespaces/inkscape"
   xmlns:sodipodi="http://sodipodi.sourceforge.net/DTD/sodipodi-0.dtd"
   xmlns="http://www.w3.org/2000/svg"
   xmlns:svg="http://www.w3.org/2000/svg">
  <defs
     id="defs7" />
  <sodipodi:namedview
     id="namedview7"
     pagecolor="#ffffff"
     bordercolor="#000000"
     borderopacity="0.25"
     inkscape:showpageshadow="2"
     inkscape:pageopacity="0.0"
     inkscape:pagecheckerboard="0"
     inkscape:deskcolor="#d1d1d1"
     inkscape:zoom="0.098978723"
     inkscape:cx="1899.3981"
     inkscape:cy="626.39725"
     inkscape:window-width="1312"
     inkscape:window-height="449"
     inkscape:window-x="0"
     inkscape:window-y="23"
     inkscape:window-maximized="0"
     inkscape:current-layer="svg7" />
  <linearGradient
     id="a"
     gradientUnits="userSpaceOnUse"
     x1="914.69531"
     x2="914.69531"
     y1="54.286598"
     y2="211.8199"
     gradientTransform="matrix(2.6393548,0,0,2.6393548,-574.46613,-8.250623)">
    <stop
       offset="0"
       stop-color="#fff"
       id="stop1" />
    <stop
       offset=".7908"
       stop-color="#ffa102"
       id="stop2" />
  </linearGradient>
  <g
     id="g7">
    <path
       id="path3"
       style="fill:#ffffff;stroke:none;stroke-width:2.63935"
       d="M 1052.5332 0 L 0 1120.2109 L 511.83203 1120.2109 L 525.88281 1106.5996 L 779.19336 861.2793 L 779.19336 1192.1758 L 1090.2773 867.49609 L 1090.2773 1120.2129 L 3387.8574 1120.2129 L 3667.6816 483.31055 L 3306.8379 483.31055 L 3334.7012 419.30078 L 3713.4238 419.30078 L 3840 128.05273 L 3115.9883 128.05273 L 2389.1113 128.05273 L 1661.584 128.05273 L 1431.5723 638.91406 L 1431.5723 22.886719 L 1052.5332 445.7207 L 1052.5332 0 z M 1036.3418 45.439453 L 1036.334 492.76562 L 1415.3848 69.931641 L 1415.3848 722.97461 L 1675.2324 145.84961 L 2365.1836 145.84961 L 2250.7734 400.86328 L 1868.9883 400.85938 L 1825.3398 501.11133 L 2033.7207 501.11133 L 1920.3711 764.05078 L 1746.4375 764.04102 L 1703.5508 859.76758 L 2456.6133 859.76758 L 2499.5 764.04688 L 2132.4883 764.04688 L 2402.9004 145.84375 L 3097.4863 145.84375 L 2986.6602 400.85742 L 2592.3398 400.85352 L 2548.6953 501.10547 L 2914.3906 501.10547 L 2757.3965 859.76562 L 3183.498 859.76562 L 3226.3848 764.04297 L 2859.3613 764.04297 L 3129.7793 145.8418 L 3814.2988 145.8418 L 3703.4766 400.85547 L 3324.7559 400.85547 L 3281.1133 501.11328 L 3641.8691 501.11328 L 3377.9648 1101.7676 L 1110.3379 1101.7676 L 1110.3379 822.06055 L 799.25 1146.7422 L 799.25 818.17383 L 515.21094 1093.2637 L 506.41797 1101.7715 L 43.820312 1101.7715 L 1036.3418 45.439453 z M 1006.5566 121.14844 L 119.66602 1059.8281 L 492.26562 1059.8281 L 494.19727 1059.8281 L 500.21875 1059.8281 L 832.66797 740.74805 L 832.66797 1054.2305 L 1146.5586 732.34961 L 1146.5586 1065.4277 L 3358.6602 1065.4277 L 3596.0254 530.77734 L 3235.4434 530.77734 L 3305.3926 370.11719 L 3684.0898 370.11719 L 3768.6602 175.51367 L 3155.5488 175.51367 L 2917.1621 727.70703 L 3284.6211 727.70703 L 3209.0762 889.43555 L 2711.625 889.43555 L 2868.6152 530.77734 L 2503.0273 530.77734 L 2572.9727 370.11719 L 2967.2793 370.11719 L 3051.8457 175.51367 L 2428.668 175.51367 L 2190.2773 727.70703 L 2552.1484 727.70703 L 2476.5996 889.43555 L 1657.3477 889.43555 L 1730.0938 727.70703 L 1903.7188 727.70703 L 1988.2305 530.77734 L 1779.6699 530.77734 L 1849.6152 370.11719 L 2231.6406 370.11719 L 2318.9512 175.51367 L 1700.7793 175.51367 L 1427.4414 782.5957 L 1385.6016 782.5957 L 1385.6016 148.33203 L 1006.5566 571.17578 L 1006.5566 121.14844 z M 2306.0488 317.92383 L 2102.8262 782.48633 L 2469.584 782.48633 L 2442.9375 841.96484 L 1729.5957 841.96484 L 1756.2422 782.48633 L 1930.3535 782.48633 L 2059.3359 483.31055 L 1851.0586 483.31055 L 1878.9277 419.30078 L 2260.5684 419.30078 L 2306.0488 317.92383 z M 2602.2832 419.30078 L 2988.5898 419.30078 L 2829.7148 782.48633 L 3196.4648 782.48633 L 3169.8203 841.9707 L 2783.1738 841.9707 L 2940.1621 483.31055 L 2574.4141 483.31055 L 2602.2832 419.30078 z " />
    <path
       d="m 821.10064,763.919 -320.66841,309.8022 -2.64464,2.5523 H 91.622562 L 1016.3839,94.4599 v 449.21288 l 379.98,-422.84576 V 769.7124 h 21.3787 l 274.0099,-607.07536 h 645.1982 l -95.6766,212.72672 h -382.8912 l -62.199,142.53308 h 209.0158 l -95.3573,220.64746 h -174.1446 l -61.9773,138.0118 h 801.3529 l 61.9774,-138.0039 H 2168.8106 L 2421.352,162.63704 h 650.1127 l -92.673,212.72672 h -395.2698 l -62.207,142.53308 h 366.5114 L 2730.4574,876.5561 h 473.2759 l 61.9773,-138.0039 h -368.2322 l 252.5388,-575.91516 h 640.025 l -92.6809,212.72672 h -379.6237 l -62.2122,142.53308 h 361.5177 L 3371.108,1076.2735 H 1132.9536 V 765.083 l -311.85296,324.6802 z m -326.98439,303.2936 v -9.0662 z"
       fill="#f7f7f7"
       id="path5"
       style="fill:#ffffff;stroke-width:2.63935" />
  </g>
</svg>
